X:522
T:Gånglåt # 522
T: efter Melker Andersson
M:2/4
L:1/16
K: G
Q: 90
d2 |: B2d2 B2dd | c2e2 e2c2| B2c2 A2FF | G2gg g2d2 |
B2d2 B2dd | c2e2 e2c2 | B2d2 dcAF | G8 :: g2G2 G2gf | e2c2 c2ag |
f2d2 e2f2 | gfga bagf| g2G2 G2gf | e2c2 c2ag |  f2d2 e2f2 | g8 :|
